web/ui/src/assets/svgs/btn/hook.svg

<svg height="26" viewBox="0 0 26 26" width="26" xmlns="http://www.w3.org/2000/svg"><g fill="none" fill-rule="evenodd"><path d="m0 0h26v26h-26z" fill="#000" fill-rule="nonzero" opacity="0"/><path d="m11.3316667 20.5833333c-1.5816667 2.2425-4.6691667 2.8058334-6.90083336 1.2458334-2.22083334-1.56-2.74083334-4.6691667-1.18083334-6.9333334.88445352-1.2840914 2.32054413-2.0783538 3.87833334-2.145l.05416666 1.5491667c-.98583334.0758333-1.93916666.585-2.55666666 1.4733333-1.08333334 1.56-.7475 3.6616667.73666666 4.7125 1.495 1.04 3.58583334.6391667 4.6691667-.91.3358333-.4875.5308333-1.0183333.6066666-1.56v-1.0941666l6.045-.0433334.0758334-.1191666c.5741666-.9966667 1.82-1.3433334 2.795-.78.4712711.2757608.8136624.7274744.9518212 1.2557288s.060763 1.0897584-.2151546 1.5609378c-.5741666.9858334-1.8308333 1.3325-2.8058333.7691667-.4441667-.2491667-.7583333-.65-.8991667-1.105l-4.4091666.0216667c-.1291264.7526407-.417193 1.469114-.845 2.1016666m7.8866666-7.735c2.7408334.3358334 4.6908334 2.795 4.355 5.4925-.3358333 2.7083334-2.8275 4.6258334-5.5683333 4.29-1.5425015-.1796614-2.914739-1.0638145-3.7158333-2.3941666l1.3433333-.78c.5626261.87118 1.4837062 1.446855 2.5133333 1.5708333 1.8958334.2275 3.575-1.0616667 3.8025-2.8708333.2275-1.8091667-1.1158333-3.4666667-2.99-3.6941667-.585-.065-1.1483333.0108333-1.6575.195l-.9208333.4766667-2.795-5.16750004h-.2383333c-1.1353835-.03305882-2.0308693-.97694928-2.0041667-2.1125.0325-1.12666666 1.0075-2.00416666 2.145-1.96083332 1.1375.065 2.0366667.98583334 2.0041667 2.1125-.0216667.47666666-.2058334.91-.4983334 1.24583332l2.0583334 3.80250004c.6716666-.2166667 1.4083333-.2925 2.1666666-.2058334m-10.2808333-2.94666664c-1.08333334-2.54583334.065-5.46 2.5675-6.52166666 2.5133333-1.06166666 5.4166667.14083334 6.5 2.68666666.6391667 1.48416666.5091667 3.10916666-.2166667 4.40916664l-1.3433333-.77999996c.455-.8775.5308333-1.95.0975-2.9575-.7366667-1.73333334-2.6975-2.5675-4.3766667-1.86333334-1.69.715-2.4483333 2.70833334-1.7116666 4.44166666.3033333.71500004.8125 1.26750004 1.43 1.63583334l.4225.2275-3.32583336 5.4058333c.0325.0541667.07583334.1191667.10833332.2058334.53083334.9858333.1625 2.2316666-.83416666 2.7625-.98583334.5308333-2.23166666.1408333-2.77333334-.8775-.53083334-1.0075-.1625-2.2533334.83416668-2.7841667.4225-.2275.88833334-.2816667 1.3325-.1841667l2.50249996-4.0841666c-.50916662-.4658334-.94249996-1.0508334-1.2133333-1.72250004z" fill="#6b7b8d"/></g></svg>

<?xml version="1.0" encoding="UTF-8"?>
<svg width="26px" height="26px" viewBox="0 0 26 26" version="1.1" xmlns="http://www.w3.org/2000/svg" xmlns:xlink="http://www.w3.org/1999/xlink">
    <title>webhook备份 10</title>
    <g id="页面-1" stroke="none" stroke-width="1" fill="none" fill-rule="evenodd">
        <g id="建木自动化-首页" transform="translate(-305.000000, -422.000000)">
            <g id="webhook备份-10" transform="translate(305.000000, 422.000000)">
                <rect id="矩形" fill="#000000" fill-rule="nonzero" opacity="0" x="0" y="0" width="26" height="26"></rect>
                <path d="M11.3316667,20.5833333 C9.75,22.8258333 6.6625,23.3891667 4.43083334,21.8291667 C2.21,20.2691667 1.69,17.16 3.25,14.8958333 C4.13445352,13.6117419 5.57054413,12.8174795 7.12833334,12.7508333 L7.1825,14.3 C6.19666666,14.3758333 5.24333334,14.885 4.62583334,15.7733333 C3.5425,17.3333333 3.87833334,19.435 5.3625,20.4858333 C6.8575,21.5258333 8.94833334,21.125 10.0316667,19.5758333 C10.3675,19.0883333 10.5625,18.5575 10.6383333,18.0158333 L10.6383333,16.9216667 L16.6833333,16.8783333 L16.7591667,16.7591667 C17.3333333,15.7625 18.5791667,15.4158333 19.5541667,15.9791667 C20.0254378,16.2549275 20.3678291,16.7066411 20.5059879,17.2348955 C20.6441467,17.7631499 20.5667509,18.3246539 20.2908333,18.7958333 C19.7166667,19.7816667 18.46,20.1283333 17.485,19.565 C17.0408333,19.3158333 16.7266667,18.915 16.5858333,18.46 L12.1766667,18.4816667 C12.0475403,19.2343074 11.7594737,19.9507807 11.3316667,20.5833333 M19.2183333,12.8483333 C21.9591667,13.1841667 23.9091667,15.6433333 23.5733333,18.3408333 C23.2375,21.0491667 20.7458333,22.9666667 18.005,22.6308333 C16.4624985,22.4511719 15.090261,21.5670188 14.2891667,20.2366667 L15.6325,19.4566667 C16.1951261,20.3278467 17.1162062,20.9035217 18.1458333,21.0275 C20.0416667,21.255 21.7208333,19.9658333 21.9483333,18.1566667 C22.1758333,16.3475 20.8325,14.69 18.9583333,14.4625 C18.3733333,14.3975 17.81,14.4733333 17.3008333,14.6575 L16.38,15.1341667 L13.585,9.96666666 L13.3466667,9.96666666 C12.2112832,9.93360784 11.3157974,8.98971738 11.3425,7.85416666 C11.375,6.7275 12.35,5.85 13.4875,5.89333334 C14.625,5.95833334 15.5241667,6.87916668 15.4916667,8.00583334 C15.47,8.4825 15.2858333,8.91583334 14.9933333,9.25166666 L17.0516667,13.0541667 C17.7233333,12.8375 18.46,12.7616667 19.2183333,12.8483333 M8.9375,9.90166666 C7.85416666,7.35583332 9.0025,4.44166666 11.505,3.38 C14.0183333,2.31833334 16.9216667,3.52083334 18.005,6.06666666 C18.6441667,7.55083332 18.5141667,9.17583332 17.7883333,10.4758333 L16.445,9.69583334 C16.9,8.81833334 16.9758333,7.74583334 16.5425,6.73833334 C15.8058333,5.005 13.845,4.17083334 12.1658333,4.875 C10.4758333,5.59 9.7175,7.58333334 10.4541667,9.31666666 C10.7575,10.0316667 11.2666667,10.5841667 11.8841667,10.9525 L12.3066667,11.18 L8.98083334,16.5858333 C9.01333334,16.64 9.05666668,16.705 9.08916666,16.7916667 C9.62,17.7775 9.25166666,19.0233333 8.255,19.5541667 C7.26916666,20.085 6.02333334,19.695 5.48166666,18.6766667 C4.95083332,17.6691667 5.31916666,16.4233333 6.31583334,15.8925 C6.73833334,15.665 7.20416668,15.6108333 7.64833334,15.7083333 L10.1508333,11.6241667 C9.64166668,11.1583333 9.20833334,10.5733333 8.9375,9.90166666 Z" id="形状" fill="#6B7B8D"></path>
            </g>
        </g>
    </g>
</svg>
